X: 2
T: Handsome Young Maids $1(J-52)
C: Charlie Lennon
M: 6/8
Z: Transcribed to abc by Mary Lou Knack
R: jig
K: A
"A"aed cBA| cde aga| "E"bee dee| Bee bag| 
"A"aed cBA| cde aga| "E"bee dee|1 BAG "A"A2e:|2 "E"BAG "A"A2 |]
|: B|  "A"c2A ABc| "D"dcd "E"fed| "A"cAc aec| "E"B2f fed|
   [1"A"c2A ABc| "D"dcd "E"fed| "A"ece "D"fed| "E"cdB "A"A2 :|
   [2 "A"c2A ABc| "D"dcd "E"fed| "A"ece "D"fef| "E"gfg bag|]

